applets/maintained/animal-farm/icons/lemmling-cartoon-elk.svg

<?xml version="1.0" encoding="UTF-8" standalone="no"?>
<!-- Created with Inkscape (http://www.inkscape.org/) -->

<svg
   xmlns:dc="http://purl.org/dc/elements/1.1/"
   xmlns:cc="http://creativecommons.org/ns#"
   xmlns:rdf="http://www.w3.org/1999/02/22-rdf-syntax-ns#"
   xmlns:svg="http://www.w3.org/2000/svg"
   xmlns="http://www.w3.org/2000/svg"
   xmlns:sodipodi="http://sodipodi.sourceforge.net/DTD/sodipodi-0.dtd"
   xmlns:inkscape="http://www.inkscape.org/namespaces/inkscape"
   version="1.0"
   width="335.62"
   height="335.62"
   id="svg2"
   inkscape:version="0.47 r22583"
   sodipodi:docname="lemmling-cartoon-elk.svg">
  <metadata
     id="metadata3070">
    <rdf:RDF>
      <cc:Work
         rdf:about="">
        <dc:format>image/svg+xml</dc:format>
        <dc:type
           rdf:resource="http://purl.org/dc/dcmitype/StillImage" />
      </cc:Work>
    </rdf:RDF>
  </metadata>
  <sodipodi:namedview
     pagecolor="#ffffff"
     bordercolor="#666666"
     borderopacity="1"
     objecttolerance="10"
     gridtolerance="10"
     guidetolerance="10"
     inkscape:pageopacity="0"
     inkscape:pageshadow="2"
     inkscape:window-width="1280"
     inkscape:window-height="923"
     id="namedview3068"
     showgrid="false"
     inkscape:zoom="0.75501147"
     inkscape:cx="167.81065"
     inkscape:cy="156.28902"
     inkscape:window-x="0"
     inkscape:window-y="24"
     inkscape:window-maximized="1"
     inkscape:current-layer="svg2" />
  <defs
     id="defs4" />
  <g
     transform="translate(-183.12712,-358.56798)"
     id="layer1">
    <path
       d="m 441.29462,560.70587 c 0.0148,49.72803 -40.29355,90.04842 -90.02158,90.04842 -49.72803,0 -90.0364,-40.32039 -90.02158,-90.04842 -0.0148,-49.72803 40.29355,-90.04842 90.02158,-90.04842 49.72803,0 90.0364,40.32039 90.02158,90.04842 z"
       transform="matrix(1.2167832,0,0,1.2167832,-76.150099,-121.55162)"
       id="path2383"
       style="fill:#784421;fill-opacity:1;fill-rule:nonzero;stroke:#000000;stroke-width:3.28735638;stroke-linecap:round;stroke-linejoin:round;stroke-miterlimit:4;stroke-opacity:1;stroke-dasharray:none" />
    <path
       d="m 454.1875,523.125 c 0.0768,1.68161 0.125,3.39329 0.125,5.09375 0,60.46428 -49.06696,109.53125 -109.53125,109.53125 -47.26217,0 -87.5912,-29.99927 -102.9375,-71.96875 2.65351,58.11219 50.67363,104.46875 109.4375,104.46875 60.46429,0 109.53125,-49.06697 109.53125,-109.53125 0,-13.20218 -2.33815,-25.87003 -6.625,-37.59375 z"
       id="path3221"
       style="fill:#000000;fill-opacity:0.31372549;fill-rule:nonzero;stroke:none" />
    <path
       d="m 359.45331,671.27549 c 0,9.09078 14.66533,9.38135 32.73511,9.38135 18.06978,0 32.73512,0.69349 32.73512,-9.38135 0,-17.71594 -14.66534,-32.0941 -32.73512,-32.0941 -18.06978,0 -32.73511,14.37816 -32.73511,32.0941 z"
       id="path3172"
       style="fill:#502d16;fill-opacity:1;fill-rule:nonzero;stroke:#000000;stroke-width:3.99999976;stroke-linecap:round;stroke-linejoin:round;stroke-miterlimit:4;stroke-opacity:1" />
    <path
       d="m 435.90825,536.8321 c 0,50.59986 -55.12119,91.6664 -81.8378,91.6664 -25.71825,0 -81.8378,-41.06654 -81.8378,-91.6664 0,-50.59985 24.62503,-91.66639 81.8378,-91.66639 57.22259,0 81.8378,41.06654 81.8378,91.66639 z"
       id="path3236"
       style="fill:#000000;fill-opacity:0.31372549;fill-rule:nonzero;stroke:none" />
    <path
       d="m 404.77885,680.0559 c 0,-16.36756 -9.44283,-26.43991 -9.44283,-26.43991 0,0 3.77713,13.84948 3.14761,26.43991 l 6.29522,0 z"
       id="path3174"
       style="fill:#000000;fill-opacity:0.31372549;fill-rule:evenodd;stroke:#000000;stroke-width:4;stroke-linecap:butt;stroke-linejoin:round;stroke-miterlimit:4;stroke-opacity:1;stroke-dasharray:none" />
    <path
       d="m 348.61128,430.41056 c -30.12925,0.68392 -50.93167,13.05281 -63.625,32.20283 -24.06444,-2.89858 -44.0625,26.46232 -44.0625,26.46232 0,10e-6 18.89113,10.58081 32.0625,1.71515 -2.39923,9.75799 -3.5625,20.28045 -3.5625,31.25775 0,50.59986 56.1255,91.67305 81.84375,91.67305 26.71661,0 81.84375,-41.07319 81.84375,-91.67305 0,-10.9773 -1.16389,-21.49976 -3.5625,-31.25775 13.17137,8.86566 32.03125,-1.71515 32.03125,-1.71515 0,0 -19.97122,-29.35168 -44.03125,-26.46232 -13.06166,-19.70812 -34.70768,-32.20283 -66.28125,-32.20283 -0.89395,0 -1.77818,-0.0199 -2.65625,0 z"
       id="path3155"
       style="fill:#784421;fill-opacity:1;fill-rule:nonzero;stroke:#000000;stroke-width:4;stroke-linecap:round;stroke-linejoin:round;stroke-miterlimit:4;stroke-opacity:1" />
    <path
       d="m 382.23628,434.167 c 22.6428,-2.36919 34.04029,-7.44616 39.5,-12 17.75418,-14.80842 11.32535,-28.5499 22,-25.5 10.5,3 10.47672,14.69492 17.5,18 8.5,4 -2.03713,-35.16786 6.5,-32.5 8,2.5 8.97184,22.34507 21,27.5 10.5,4.5 -6.60902,-46.58271 8,-35.5 14.5,11 35,55 1,67 -34,12 -84.44667,15.48686 -101,15 -17,-0.5 -32.65989,-20.09987 -14.5,-22 z"
       id="path2399"
       style="fill:#502d16;fill-opacity:1;fill-rule:evenodd;stroke:#000000;stroke-width:5;stroke-linecap:butt;stroke-linejoin:round;stroke-miterlimit:4;stroke-opacity:1;stroke-dasharray:none" />
    <path
       d="m 441.29462,560.70587 c 0.0148,49.72803 -40.29355,90.04842 -90.02158,90.04842 -49.72803,0 -90.0364,-40.32039 -90.02158,-90.04842 -0.0148,-49.72803 40.29355,-90.04842 90.02158,-90.04842 49.72803,0 90.0364,40.32039 90.02158,90.04842 z"
       transform="matrix(0.2517482,0,0,0.2517482,236.54837,359.07889)"
       id="path3157"
       style="fill:#ffffff;fill-opacity:1;fill-rule:nonzero;stroke:#000000;stroke-width:15.88889027;stroke-linecap:round;stroke-linejoin:round;stroke-miterlimit:4;stroke-opacity:1;stroke-dasharray:none" />
    <path
       d="m 441.29462,560.70587 c 0.0148,49.72803 -40.29355,90.04842 -90.02158,90.04842 -49.72803,0 -90.0364,-40.32039 -90.02158,-90.04842 -0.0148,-49.72803 40.29355,-90.04842 90.02158,-90.04842 49.72803,0 90.0364,40.32039 90.02158,90.04842 z"
       transform="matrix(0.2517482,0,0,0.2517482,289.28057,359.07889)"
       id="path3159"
       style="fill:#ffffff;fill-opacity:1;fill-rule:nonzero;stroke:#000000;stroke-width:15.88889027;stroke-linecap:round;stroke-linejoin:round;stroke-miterlimit:4;stroke-opacity:1;stroke-dasharray:none" />
    <path
       d="m 441.29462,560.70587 c 0.0148,49.72803 -40.29355,90.04842 -90.02158,90.04842 -49.72803,0 -90.0364,-40.32039 -90.02158,-90.04842 -0.0148,-49.72803 40.29355,-90.04842 90.02158,-90.04842 49.72803,0 90.0364,40.32039 90.02158,90.04842 z"
       transform="matrix(0.08391603,0,0,0.08391603,343.19932,457.18337)"
       id="path3161"
       style="fill:#000000;fill-opacity:1;fill-rule:nonzero;stroke:none" />
    <path
       d="m 441.29462,560.70587 c 0.0148,49.72803 -40.29355,90.04842 -90.02158,90.04842 -49.72803,0 -90.0364,-40.32039 -90.02158,-90.04842 -0.0148,-49.72803 40.29355,-90.04842 90.02158,-90.04842 49.72803,0 90.0364,40.32039 90.02158,90.04842 z"
       transform="matrix(0.08391603,0,0,0.08391603,301.16898,457.18337)"
       id="path3163"
       style="fill:#000000;fill-opacity:1;fill-rule:nonzero;stroke:none" />
    <path
       d="m 429.83003,492.01597 -1.875,2.97526 c 0.24888,3.44484 0.34375,6.94757 0.34375,10.50093 0,50.59987 -55.12714,91.67305 -81.84375,91.67305 -20.70581,2e-5 -61.09673,-26.60866 -76.0625,-63.39057 7.61581,45.0798 57.1719,79.94704 80.875,79.94703 26.71661,0 81.84375,-41.07323 81.84375,-91.67306 0,-10.51946 -1.07538,-20.6213 -3.28125,-30.03264 z"
       id="path3231"
       style="fill:#000000;fill-opacity:0.31372549;fill-rule:nonzero;stroke:none" />
    <path
       d="m 344.4555,671.27549 c 0,9.09078 -14.66533,9.38135 -32.73511,9.38135 -18.06978,0 -32.73512,0.69349 -32.73512,-9.38135 0,-17.71594 14.66534,-32.0941 32.73512,-32.0941 18.06978,0 32.73511,14.37816 32.73511,32.0941 z"
       id="path3329"
       style="fill:#502d16;fill-opacity:1;fill-rule:nonzero;stroke:#000000;stroke-width:3.99999976;stroke-linecap:round;stroke-linejoin:round;stroke-miterlimit:4;stroke-opacity:1" />
    <path
       d="m 299.12996,680.0559 c 0,-16.36756 9.44283,-26.43991 9.44283,-26.43991 0,0 -3.77713,13.84948 -3.14761,26.43991 l -6.29522,0 z"
       id="path3331"
       style="fill:#000000;fill-opacity:0.31372549;fill-rule:evenodd;stroke:#000000;stroke-width:4;stroke-linecap:butt;stroke-linejoin:round;stroke-miterlimit:4;stroke-opacity:1;stroke-dasharray:none" />
    <path
       d="m 367.86847,576.36692 c -2.29272,3.97309 -6.50025,5.8386 -9.39677,4.16629 -2.89654,-1.67231 -3.38472,-6.2489 -1.09029,-10.22099 2.29273,-3.9731 6.50026,-5.83861 9.39679,-4.1663 2.89653,1.67231 3.38471,6.2489 1.09027,10.221 z"
       id="path2398"
       style="fill:#000000;fill-opacity:1;fill-rule:nonzero;stroke:none" />
    <path
       d="m 335.13142,576.36692 c 2.29272,3.97309 6.50025,5.8386 9.39677,4.16629 2.89654,-1.67231 3.38472,-6.2489 1.09029,-10.22099 -2.29273,-3.9731 -6.50026,-5.83861 -9.39679,-4.1663 -2.89653,1.67231 -3.38471,6.2489 -1.09027,10.221 z"
       id="path2412"
       style="fill:#000000;fill-opacity:1;fill-rule:nonzero;stroke:none" />
    <path
       d="m 319.63928,434.167 c -22.6428,-2.36919 -34.04029,-7.44616 -39.5,-12 -17.75418,-14.80842 -11.32535,-28.5499 -22,-25.5 -10.5,3 -10.47672,14.69492 -17.5,18 -8.5,4 2.03713,-35.16786 -6.5,-32.5 -8,2.5 -8.97184,22.34507 -21,27.5 -10.5,4.5 6.60902,-46.58271 -8,-35.5 -14.5,11 -35,55 -1,67 34,12 84.44667,15.48686 101,15 17,-0.5 32.65989,-20.09987 14.5,-22 z"
       id="path3171"
       style="fill:#502d16;fill-opacity:1;fill-rule:evenodd;stroke:#000000;stroke-width:5;stroke-linecap:butt;stroke-linejoin:round;stroke-miterlimit:4;stroke-opacity:1;stroke-dasharray:none" />
  </g>
</svg>

<?xml version="1.0" encoding="UTF-8" standalone="no"?>
<!-- Created with Inkscape (http://www.inkscape.org/) -->
<svg
   xmlns:svg="http://www.w3.org/2000/svg"
   xmlns="http://www.w3.org/2000/svg"
   version="1.0"
   width="335.62131"
   height="312.57803"
   id="svg2">
  <defs
     id="defs4" />
  <g
     transform="translate(-183.12712,-370.08896)"
     id="layer1">
    <path
       d="M 441.29462,560.70587 C 441.30944,610.4339 401.00107,650.75429 351.27304,650.75429 C 301.54501,650.75429 261.23664,610.4339 261.25146,560.70587 C 261.23664,510.97784 301.54501,470.65745 351.27304,470.65745 C 401.00107,470.65745 441.30944,510.97784 441.29462,560.70587 z"
       transform="matrix(1.2167832,0,0,1.2167832,-76.150099,-121.55162)"
       id="path2383"
       style="opacity:1;fill:#784421;fill-opacity:1;fill-rule:nonzero;stroke:#000000;stroke-width:3.28735638;stroke-linecap:round;stroke-linejoin:round;stroke-miterlimit:4;stroke-dasharray:none;stroke-opacity:1" />
    <path
       d="M 454.1875,523.125 C 454.26429,524.80661 454.3125,526.51829 454.3125,528.21875 C 454.3125,588.68303 405.24554,637.75 344.78125,637.75 C 297.51908,637.75 257.19005,607.75073 241.84375,565.78125 C 244.49726,623.89344 292.51738,670.25 351.28125,670.25 C 411.74554,670.25 460.8125,621.18303 460.8125,560.71875 C 460.8125,547.51657 458.47435,534.84872 454.1875,523.125 z"
       id="path3221"
       style="opacity:1;fill:#000000;fill-opacity:0.31372549;fill-rule:nonzero;stroke:none;stroke-width:4;stroke-linecap:round;stroke-linejoin:round;stroke-miterlimit:4;stroke-dasharray:none;stroke-opacity:1" />
    <path
       d="M 359.45331,671.27549 C 359.45331,680.36627 374.11864,680.65684 392.18842,680.65684 C 410.2582,680.65684 424.92354,681.35033 424.92354,671.27549 C 424.92354,653.55955 410.2582,639.18139 392.18842,639.18139 C 374.11864,639.18139 359.45331,653.55955 359.45331,671.27549 z"
       id="path3172"
       style="fill:#502d16;fill-opacity:1;fill-rule:nonzero;stroke:#000000;stroke-width:3.99999976;stroke-linecap:round;stroke-linejoin:round;stroke-miterlimit:4;stroke-opacity:1" />
    <path
       d="M 435.90825,536.8321 C 435.90825,587.43196 380.78706,628.4985 354.07045,628.4985 C 328.3522,628.4985 272.23265,587.43196 272.23265,536.8321 C 272.23265,486.23225 296.85768,445.16571 354.07045,445.16571 C 411.29304,445.16571 435.90825,486.23225 435.90825,536.8321 z"
       id="path3236"
       style="fill:#000000;fill-opacity:0.31372549;fill-rule:nonzero;stroke:none;stroke-width:4;stroke-linecap:round;stroke-linejoin:round;stroke-miterlimit:4;stroke-opacity:1" />
    <path
       d="M 404.77885,680.0559 C 404.77885,663.68834 395.33602,653.61599 395.33602,653.61599 C 395.33602,653.61599 399.11315,667.46547 398.48363,680.0559 L 404.77885,680.0559 z"
       id="path3174"
       style="fill:#000000;fill-opacity:0.31372549;fill-rule:evenodd;stroke:#000000;stroke-width:4;stroke-linecap:butt;stroke-linejoin:round;stroke-miterlimit:4;stroke-dasharray:none;stroke-opacity:1" />
    <path
       d="M 348.61128,430.41056 C 318.48203,431.09448 297.67961,443.46337 284.98628,462.61339 C 260.92184,459.71481 240.92378,489.07571 240.92378,489.07571 C 240.92378,489.07572 259.81491,499.65652 272.98628,490.79086 C 270.58705,500.54885 269.42378,511.07131 269.42378,522.04861 C 269.42378,572.64847 325.54928,613.72166 351.26753,613.72166 C 377.98414,613.72166 433.11128,572.64847 433.11128,522.04861 C 433.11128,511.07131 431.94739,500.54885 429.54878,490.79086 C 442.72015,499.65652 461.58003,489.07571 461.58003,489.07571 C 461.58003,489.07571 441.60881,459.72403 417.54878,462.61339 C 404.48712,442.90527 382.8411,430.41056 351.26753,430.41056 C 350.37358,430.41056 349.48935,430.39063 348.61128,430.41056 z"
       id="path3155"
       style="fill:#784421;fill-opacity:1;fill-rule:nonzero;stroke:#000000;stroke-width:4;stroke-linecap:round;stroke-linejoin:round;stroke-miterlimit:4;stroke-opacity:1" />
    <path
       d="M 382.23628,434.167 C 404.87908,431.79781 416.27657,426.72084 421.73628,422.167 C 439.49046,407.35858 433.06163,393.6171 443.73628,396.667 C 454.23628,399.667 454.213,411.36192 461.23628,414.667 C 469.73628,418.667 459.19915,379.49914 467.73628,382.167 C 475.73628,384.667 476.70812,404.51207 488.73628,409.667 C 499.23628,414.167 482.12726,363.08429 496.73628,374.167 C 511.23628,385.167 531.73628,429.167 497.73628,441.167 C 463.73628,453.167 413.28961,456.65386 396.73628,456.167 C 379.73628,455.667 364.07639,436.06713 382.23628,434.167 z"
       id="path2399"
       style="fill:#502d16;fill-opacity:1;fill-rule:evenodd;stroke:#000000;stroke-width:5;stroke-linecap:butt;stroke-linejoin:round;stroke-miterlimit:4;stroke-dasharray:none;stroke-opacity:1" />
    <path
       d="M 441.29462,560.70587 C 441.30944,610.4339 401.00107,650.75429 351.27304,650.75429 C 301.54501,650.75429 261.23664,610.4339 261.25146,560.70587 C 261.23664,510.97784 301.54501,470.65745 351.27304,470.65745 C 401.00107,470.65745 441.30944,510.97784 441.29462,560.70587 z"
       transform="matrix(0.2517482,0,0,0.2517482,236.54837,359.07889)"
       id="path3157"
       style="opacity:1;fill:#ffffff;fill-opacity:1;fill-rule:nonzero;stroke:#000000;stroke-width:15.88889027;stroke-linecap:round;stroke-linejoin:round;stroke-miterlimit:4;stroke-dasharray:none;stroke-opacity:1" />
    <path
       d="M 441.29462,560.70587 C 441.30944,610.4339 401.00107,650.75429 351.27304,650.75429 C 301.54501,650.75429 261.23664,610.4339 261.25146,560.70587 C 261.23664,510.97784 301.54501,470.65745 351.27304,470.65745 C 401.00107,470.65745 441.30944,510.97784 441.29462,560.70587 z"
       transform="matrix(0.2517482,0,0,0.2517482,289.28057,359.07889)"
       id="path3159"
       style="opacity:1;fill:#ffffff;fill-opacity:1;fill-rule:nonzero;stroke:#000000;stroke-width:15.88889027;stroke-linecap:round;stroke-linejoin:round;stroke-miterlimit:4;stroke-dasharray:none;stroke-opacity:1" />
    <path
       d="M 441.29462,560.70587 C 441.30944,610.4339 401.00107,650.75429 351.27304,650.75429 C 301.54501,650.75429 261.23664,610.4339 261.25146,560.70587 C 261.23664,510.97784 301.54501,470.65745 351.27304,470.65745 C 401.00107,470.65745 441.30944,510.97784 441.29462,560.70587 z"
       transform="matrix(8.3916033e-2,0,0,8.3916033e-2,343.19932,457.18337)"
       id="path3161"
       style="opacity:1;fill:#000000;fill-opacity:1;fill-rule:nonzero;stroke:none;stroke-width:47.66669083;stroke-linecap:round;stroke-linejoin:round;stroke-miterlimit:4;stroke-dasharray:none;stroke-opacity:1" />
    <path
       d="M 441.29462,560.70587 C 441.30944,610.4339 401.00107,650.75429 351.27304,650.75429 C 301.54501,650.75429 261.23664,610.4339 261.25146,560.70587 C 261.23664,510.97784 301.54501,470.65745 351.27304,470.65745 C 401.00107,470.65745 441.30944,510.97784 441.29462,560.70587 z"
       transform="matrix(8.3916033e-2,0,0,8.3916033e-2,301.16898,457.18337)"
       id="path3163"
       style="opacity:1;fill:#000000;fill-opacity:1;fill-rule:nonzero;stroke:none;stroke-width:47.66669083;stroke-linecap:round;stroke-linejoin:round;stroke-miterlimit:4;stroke-dasharray:none;stroke-opacity:1" />
    <path
       d="M 429.83003,492.01597 L 427.95503,494.99123 C 428.20391,498.43607 428.29878,501.9388 428.29878,505.49216 C 428.29878,556.09203 373.17164,597.16521 346.45503,597.16521 C 325.74922,597.16523 285.3583,570.55655 270.39253,533.77464 C 278.00834,578.85444 327.56443,613.72168 351.26753,613.72167 C 377.98414,613.72167 433.11128,572.64844 433.11128,522.04861 C 433.11128,511.52915 432.0359,501.42731 429.83003,492.01597 z"
       id="path3231"
       style="fill:#000000;fill-opacity:0.31372549;fill-rule:nonzero;stroke:none;stroke-width:4;stroke-linecap:round;stroke-linejoin:round;stroke-miterlimit:4;stroke-opacity:1" />
    <path
       d="M 344.4555,671.27549 C 344.4555,680.36627 329.79017,680.65684 311.72039,680.65684 C 293.65061,680.65684 278.98527,681.35033 278.98527,671.27549 C 278.98527,653.55955 293.65061,639.18139 311.72039,639.18139 C 329.79017,639.18139 344.4555,653.55955 344.4555,671.27549 z"
       id="path3329"
       style="fill:#502d16;fill-opacity:1;fill-rule:nonzero;stroke:#000000;stroke-width:3.99999976;stroke-linecap:round;stroke-linejoin:round;stroke-miterlimit:4;stroke-opacity:1" />
    <path
       d="M 299.12996,680.0559 C 299.12996,663.68834 308.57279,653.61599 308.57279,653.61599 C 308.57279,653.61599 304.79566,667.46547 305.42518,680.0559 L 299.12996,680.0559 z"
       id="path3331"
       style="fill:#000000;fill-opacity:0.31372549;fill-rule:evenodd;stroke:#000000;stroke-width:4;stroke-linecap:butt;stroke-linejoin:round;stroke-miterlimit:4;stroke-dasharray:none;stroke-opacity:1" />
    <path
       d="M 367.86847,576.36692 C 365.57575,580.34001 361.36822,582.20552 358.4717,580.53321 C 355.57516,578.8609 355.08698,574.28431 357.38141,570.31222 C 359.67414,566.33912 363.88167,564.47361 366.7782,566.14592 C 369.67473,567.81823 370.16291,572.39482 367.86847,576.36692 z"
       id="path2398"
       style="opacity:1;fill:#000000;fill-opacity:1;fill-rule:nonzero;stroke:none;stroke-width:47.66669083;stroke-linecap:round;stroke-linejoin:round;stroke-miterlimit:4;stroke-dasharray:none;stroke-opacity:1" />
    <path
       d="M 335.13142,576.36692 C 337.42414,580.34001 341.63167,582.20552 344.52819,580.53321 C 347.42473,578.8609 347.91291,574.28431 345.61848,570.31222 C 343.32575,566.33912 339.11822,564.47361 336.22169,566.14592 C 333.32516,567.81823 332.83698,572.39482 335.13142,576.36692 z"
       id="path2412"
       style="opacity:1;fill:#000000;fill-opacity:1;fill-rule:nonzero;stroke:none;stroke-width:47.66669083;stroke-linecap:round;stroke-linejoin:round;stroke-miterlimit:4;stroke-dasharray:none;stroke-opacity:1" />
    <path
       d="M 319.63928,434.167 C 296.99648,431.79781 285.59899,426.72084 280.13928,422.167 C 262.3851,407.35858 268.81393,393.6171 258.13928,396.667 C 247.63928,399.667 247.66256,411.36192 240.63928,414.667 C 232.13928,418.667 242.67641,379.49914 234.13928,382.167 C 226.13928,384.667 225.16744,404.51207 213.13928,409.667 C 202.63928,414.167 219.7483,363.08429 205.13928,374.167 C 190.63928,385.167 170.13928,429.167 204.13928,441.167 C 238.13928,453.167 288.58595,456.65386 305.13928,456.167 C 322.13928,455.667 337.79917,436.06713 319.63928,434.167 z"
       id="path3171"
       style="fill:#502d16;fill-opacity:1;fill-rule:evenodd;stroke:#000000;stroke-width:5;stroke-linecap:butt;stroke-linejoin:round;stroke-miterlimit:4;stroke-dasharray:none;stroke-opacity:1" />
  </g>
</svg>
